X:113
T:Circassian Circle
C:Joe Buchanan's Scottish Tome - Page 179.1
I:179 1
Z:Carl Allison
R:Jig
L:1/8
M:4/4
K:A
E | A/E/c/B/  Ac | A/E/c/B/  Ac | B/E/d/c/  Bd | B/c/B/A/ G/E/F/G/ |
A/E/c/B/  Ac | A/E/c/B/  Ac | B/c/B/A/  G/E/F/G/ :|
e | c/A/f/d/ ce | cAc/e/ a/e/c/A/  | B/E/d/c/ Bd | B/c/B/A/ G/B/e/d/  |
c/A/e/d/ ce | c/A/c/e/ a/e/c/A/ | B/c/B/A/ G/E/F/G/  | Ac A :|

